X:12
T:Festival de Yotala
R:waynu
Z:id:hn-waynu-12
O:Bolivia
M:2/4
L:1/8
Q:1/4=90
K:Edor
GA Bc | dB/ddd/ |[M:3/4] c/cc/ ce/BB/A/G/ |[M:2/4] Ee/g/ e/g/e/g/ :|
|: B/dd/ c/cc/ | B/BB/ e>e | dc/BB/A/G/ |1 Ee/g/ e/g/e/g/ :|
[2 |: E3/EF/G/A/ | B/BB/ e/ee/ | dc/BB/A/G/ :| Ee/g/ e/g/e/g/ ||

